X:120
T: O SEHT WIE RUND UND FEIN
N: F0239
O: Europa, Mitteleuropa, Deutschland
R: Jugend - Lied, Natur
M: 2/4
L: 1/16
K: F
c2 | A3GA3B | c6
A2 | G3FG3A | B8
A4c=BAB | c4z2
c2 | d2c2B2A2 | B4z2
B2 | c2B2A2G2 | A4z2
A2 | G4FEDE | F4z2

